X: 13
T: I Have A Little Dreidel
Z: Gideon Klionsky
K: C
R: I V I, VI ii, ii V I // I, VI ii, V I
%
C: Samuel E. Goldfarb
%Q: 1/4=160
%
%
M: 4/4
L: 1/4
("G7"G2 |"C"c)c"G7"dd | "C"(ec2) e | "A7"ggfe | "Dm" d3d | fdfd | fd2 g | "G7" g>f"G7/B"ed  | "C" c2 "C/E"e2 |
w: In C!
"C"ge"C/E"ge | "C"ge2 e |"A7" ggfe | "Dm"d3 d | fdfd | fd2 f | "G7"g>f ed |"C"c2 || "Ab7"(_A2 |
K:Dbmaj
%
"Db"d)d"Ab7"ee | "Db"(fd2) f | "Bb7"aagf | "Ebm" e3e | gege | ge2 a | "Ab7" a>g"Ab7/C"fe | "Db" d2 "Db/F"f2 |
w: In D-flat!
"Db"af"Db/F"af | "Db"af2 f |"Bb7" aagf | "Ebm"e3 e | gege | ge2 g | "Ab7"a>g fe |"Db"d2|| ("A7"=A2 |
K:D
%
"D"d)d"A7"ee | "D"(fd2) f | "B7"aagf | "Em" e3e | gege | ge2 a | "A7" a>g"A7/C#"fe | "D" d2 "D/F#"f2 |
w: In D!
"D"af"D/F#"af | "D"af2 f |"B7" aagf | "Em"e3 e | gege | ge2 g | "A7"a>g fe |"D"d2 || ("Bb7"_B2
K:Ebmaj
%
W: D (B♭7)  -  E♭ (B7)  -  E (C7)  -  F (C#7)  -  F# (D7) -
W: G (E♭7)  -  A♭ (E7)  -  A (F7)  -  B♭ (F#7)  -  B (G7)  - C
W:
W:
W:
W:Ikh bin a kleyner dreydl, gemakht bin ikh fun blay.
W:Kumt lomir ale shpiln, in dreydl – eyns, tsvey, dray.
W:Oy, dreydl, dreydl, dreydl, oy, drey zikh, dreydl, drey
W:To lomir ale shpiln, in dreydl, eyns un tsvey.
W:
W:Un ikh hob lib tsu tantsn, zikh dreyen in a rod.
W:To lomir ale tantsn, a dreydl-karahod.
W:Oy, dreydl, dreydl, dreydl, oy, drey zikh, dreydl, drey.
W:To lomir ale shpiln, in dreydl, eyns un tsvey.
W:
W:
W:I have a little dreidel. I made it out of clay.
W:And when it's dry and ready, then dreidel I shall play.
W:Oh dreidel, dreidel, dreidel, I made it out of clay.
W:Oh dreidel, dreidel, dreidel, then dreidel I shall play.
W:
W:It has a lovely body, with legs so short and thin.
W:When it gets all tired, it drops and then I win!
W:Dreidel, dreidel, dreidel, with leg so short and thin.
W:Oh dreidel, dreidel, dreidel, it drops and then I win!
W:
W:My dreidel's always playful. It loves to dance and spin.
W:A happy game of dreidel, come play now let's begin.
W:Oh dreidel, dreidel, dreidel, it loves to dance and spin.
W:Oh dreidel, dreidel, dreidel. Come play now let's begin.
W:
W:I have a little dreidel. I made it out of clay.
W:When it's dry and ready, dreidel I shall play.
W:Oh dreidel, dreidel, dreidel, I made you out of clay.
W:Oh dreidel, dreidel, dreidel, then dreidel I shall play.

